X:1
T:His golden locks - Dowland
T:#
%%score [ 1 2 3 4 ]
L:1/8
Q:1/4=180
M:3/2
K:G
V:1 treble nm="Soprano"
V:2 treble nm="Alto"
V:3 treble-8 nm="Tenor"
V:4 bass nm="Bass"
V:1
"^His golden locks time hath to silver turn'd" B4 B4 B4 | B8 B4 | d8 c4 | B4 A8 | %4
w: His gold- en|locks time|hath to|sil- ver|
w: His hel- met|now shall|make a|hive for|
w: And when he|sad- dest|sits in|home- ly|
"^John Dowland\n(1563-1626)" G8 z4 | z2 d2 c4 B4 | A4 d4 c4 | B4 A4 G4 | (A4 A4) z4 | A4 A4 A4 | %10
w: turn'd.|O time too|swift! O swift-|ness ne- ver|ceas- ing!|His youth 'gainst|
w: bees,|And lo- vers'|son- nets turn|to ho- ly|psalms. *|A man- at-|
w: cell,|He'll teach his|swains this ca-|rol for a|song: *|Bless'd be the|
 c6 B2 A4 | B4 G6 A2 | ^F8 z4 | F4 G4 A4 | B6 d2 c4 | G4 A6 A2 | (G4 G8) |:[M:2/2] z4 G4- | G4 G4 | %19
w: time and age|hath e- ver|spurn'd,|But spurn'd in|vain; youth wa-|neth by in-|creas- ing.|Beau\-|* ty,|
w: arms must now|serve on his|knees,|And feed on|pray- ers, which|are a- ge's|alms. *|But|* though|
w: hearts that wish|my Sov'- reign|well,|Curs'd be the|soul that thinks|her a- ny|wrong. *|Ye|* gods,|
 G8 | G4 c4 | B4 A4 | A4 ^G4 | A8 |[M:2/2] z4 d4- | d4 B4- | B4 c4 | A6 B2 | c4 B4 | A6 A2 | G8 :| %31
w: strength,|youth are|flow'rs but|fad- ing|seen;|Du-|* ty,|* faith,|love are|roots, and|e- ver|green.|
w: from|court to|cot- tage|he de-|part,|His|* saint|* is|sure of|his un-|spot- ted|heart.|
w: al-|low this|a- ged|man his|right,|To|* be|* your|beads- man|now, that|was your|knight.|
V:2
 G4 G4 G4 | G8 G4 | G4 D2 E4 C2 | D4 E4 (D2 C2) | B,8 z4 | (F3 G) A4 G4 | F6 F2 E4 | %7
w: His gold- en|locks time|hath to sil- ver,|to sil- ver *|turn'd.|O * time too|swift! O swift-|
w: His hel- met|now shall|make a hive for,|a hive for *|bees,|And * lo- vers'|son- nets turn|
w: And when he|sad- dest|sits in home- ly,|in home- ly *|cell,|He'll * teach his|swains this ca-|
 D2 E2 (F4 G4) | (F4 F4) z4 | =F4 F4 F4 | =F8 F4 | E2 D4 D2 ^C4 | D8 z4 | D4 B,2 E4 D2- | %14
w: ness ne- ver *|ceas- ing!|His youth 'gainst|time and|age hath e- ver|spurn'd,|But spurn'd in vain:|
w: to ho- ly *|psalms. *|A man- at-|arms must|now serve on his|knees,|And feed on pray\-|
w: rol for a *|song: *|Bless'd be the|hearts that|wish my Sov'- reign|well,|Curs'd be the soul|
 D2 D2 G4 E4 | C2 B,2 D6 C2 | (B,4 B,8) |:[M:2/2] D8- | D4 C4- | C4 B,4 | C4 G4 | =F4 D4 | E6 D2 | %23
w: * youth wa- neth,|wa- neth by in-|creas- ing.|Beau\-|* ty,|* strength,|youth are|flow'rs but|fad- ing|
w: * ers, which are,|which are a- ge's|alms. *|But|* though|* from|court to|cot- tage|he de-|
w: * that thinks her,|thinks her a- ny|wrong. *|Ye|* gods,|* al-|low this|a- ged|man his|
 ^C8 |[M:2/2] ^F8 | D4 D4 | G4 E4 | D4 F4 | E4 D4 | D6 C2 | B,8 :| %31
w: seen;|Du-|ty, du-|ty, faith,|love are|roots, and|e- ver|green.|
w: part,|His|saint, his|saint is|sure of|his un-|spot- ted|heart.|
w: right,|To|be, to|be your|beads- man|now, that|was your|knight.|
V:3
 d4 d4 d4 | d8 d4 | B8 A4 | G8 F4 | G8 z4 | d4 z2 A2 B2 c2 | d3 c B2 A2 G2 A2 | B2 c2 d6 G2 | %8
w: His gold- en|locks time|hath to|sil- ver|turn'd.|O, O time too|swift, O time too swift! O|swift- ness ne- ver|
w: His hel- met|now shall|make a|hive for|bees,|And, and lo- vers'|son- nets, lo- vers' son- nets|turn to ho- ly|
w: And when he|sad- dest|sits in|home- ly|cell,|He'll teach his swains,|teach his swains, his swains this|ca- rol for a|
 (d4 d4) z4 | c4 c4 c4 | A6 B2 c4 | B4 e4 e4 | A8 z4 | A2 B4 c4 A2 | z2 d4 G4 G2 | G8 F4 | %16
w: ceas- ing!|His youth 'gainst|time and age|hath e- ver|spurn'd,|But spurn'd in vain;|youth wa- neth|by in-|
w: psalms. *|A man- at-|arms must now|serve on his|knees,|And feed on pray-|ers, which are|a- ge's|
w: song: *|Bless'd be the|hearts that wish|my Sov'- reign|well,|Curs'd be the soul|that thinks her|a- ny|
 (G4 G8) |:[M:2/2][K:treble-8] B8- | B4 e4 | d8 | e6 e2 | d6 A2 | c4 B4 | A8 | %24
w: creas- ing.|Beau\-|* ty,|strength,|youth are|flow'rs but|fad- ing|seen;|
w: alms. *|But|* though|from|court to|cot- tage|he de-|part,|
w: wrong. *|Ye|* gods,|al-|low this|a- ged|man his|right,|
[M:2/2][K:treble-8] A8 | B8- | B4 (A2 G2) | A4 d4 | (G3 A B2) G2- | G2 (FE) F4 | G8 :| %31
w: Du-|ty,|* faith, *|Love are|roots, * * and|* e\- * ver|green.|
w: His|saint|* is *|sure of|his * * un\-|* spot\- * ted|heart.|
w: To|be|* your *|beads- man|now, * * that|* was * your|knight.|
V:4
 G,4 G,4 G,4 | G,8 G,4 | G,,8 A,,4 | (B,,4 C,4) D,4 | G,,8 z4 | D,4 =F,4 G,4 | %6
w: His gold- en|locks time|hath to|sil\- * ver|turn'd.|O time too|
w: His hel- met|now shall|make a|hive * for|Bees,|And lo- vers'|
w: And when he|sad- dest|sits in|home\- * ly|cell,|He'll teach his|
 D,6 D,2 (E,2 (^F,2) | G,4) D,4 E,4 | (D,4 D,4) z4 | =F,4 F,4 F,4 | =F,6 F,2 F,4 | G,4 E,4 E,4 | %12
w: swift! O swift\- *|ness ne- ver|ceas- ing!|His youth 'gainst|time and age|hath e- ver|
w: son- nets turn to|* ho- ly|psalms. *|A man- at-|arms must now|serve on his|
w: swains this ca\- *|rol for a|song: *|Bless'd be the|hearts that wish|my Sov'- reign|
 D,8 z4 | D,4 E,4 F,4 | G,6 B,,2 C,4 | E,4 D,4 D,4 | (G,,4 G,,8) |:[M:2/2] G,8 | E,8 | G,8 | %20
w: spurn'd,|But spurn'd in|vain; youth wa-|neth by in-|creas- ing.|Beau-|ty,|strength,|
w: knees,|And feed on|pray- ers, which|are a- ge's|alms. *|But|though|from|
w: well,|Curs'd be the|soul that thinks|her a- ny|wrong. *|Ye|gods,|al-|
 C,6 C,2 | D,4 =F,4 | E,4 E,4 | A,,8 |[M:2/2] D,8 | G,8 | E,8 | F,4 D,4 | (E,3 F,) G,4 | D,4 D,4 | %30
w: youth are|flow'rs but|fad ing|seen;|Du-|ty,|faith,|love are|roots, * and|e- ver|
w: court to|cot- tage|he de-|part,|His|saint|is|sure of|his * un-|spot- ted|
w: low this|a- ged|man his|right,|To|be|your|beads- man|now, * that|was your|
 G,,8 :| %31
w: green.|
w: heart.|
w: knight.|

